icons-dark/apps/48/muondiscover.svg

<?xml version="1.0" encoding="UTF-8" standalone="no"?>

<!-- Created with Inkscape (http://www.inkscape.org/) -->
<svg width="48" version="1.1" xmlns="http://www.w3.org/2000/svg" height="48" xmlns:xlink="http://www.w3.org/1999/xlink" xmlns:inkscape="http://www.inkscape.org/namespaces/inkscape">
 <defs id="defs5455">
  <linearGradient inkscape:collect="always" id="linearGradient4438">
   <stop style="stop-opacity:0" id="stop4440"/>
   <stop offset="1" id="stop4442"/>
  </linearGradient>
  <linearGradient inkscape:collect="always" xlink:href="#linearGradient4143" id="linearGradient4158" y1="543.79797" y2="513.79797" x2="0" gradientUnits="userSpaceOnUse" gradientTransform="matrix(1.1250015 0 0 1 -51.07197 0)"/>
  <linearGradient inkscape:collect="always" id="linearGradient4143">
   <stop style="stop-color:#197cf1" id="stop4145"/>
   <stop offset="1" style="stop-color:#20bcfa" id="stop4147"/>
  </linearGradient>
  <linearGradient inkscape:collect="always" xlink:href="#linearGradient4143" id="linearGradient4205" y1="43.999973" y2="11" x2="0" gradientUnits="userSpaceOnUse"/>
  <linearGradient inkscape:collect="always" id="linearGradient4159-7">
   <stop style="stop-color:#1d1e1e" id="stop4161-4"/>
   <stop offset="1" style="stop-color:#44484c" id="stop4163-9"/>
  </linearGradient>
  <linearGradient inkscape:collect="always" xlink:href="#linearGradient4159-7" id="linearGradient4302" y1="10" y2="14" x2="0" gradientUnits="userSpaceOnUse"/>
  <linearGradient inkscape:collect="always" xlink:href="#linearGradient4143" id="linearGradient4174" y1="14" y2="10" gradientUnits="userSpaceOnUse" x2="0"/>
  <linearGradient inkscape:collect="always" xlink:href="#linearGradient4143" id="linearGradient4187" y1="516.79797" y2="503.798" x2="0" gradientUnits="userSpaceOnUse"/>
  <linearGradient inkscape:collect="always" id="linearGradient4303">
   <stop style="stop-color:#c6cdd1" id="stop4305"/>
   <stop offset="1" style="stop-color:#e0e5e7" id="stop4307"/>
  </linearGradient>
  <linearGradient inkscape:collect="always" xlink:href="#linearGradient4303" id="linearGradient4282" y1="17.999973" y2="15" x2="0" gradientUnits="userSpaceOnUse"/>
  <linearGradient inkscape:collect="always" xlink:href="#linearGradient4303" id="linearGradient4290" y1="517.79797" y2="514.79797" x2="0" gradientUnits="userSpaceOnUse"/>
  <linearGradient inkscape:collect="always" id="linearGradient4290-2">
   <stop style="stop-color:#7cbaf8" id="stop4292"/>
   <stop offset="1" style="stop-color:#f4fcff" id="stop4294"/>
  </linearGradient>
  <linearGradient inkscape:collect="always" xlink:href="#linearGradient4438" id="linearGradient4444" y1="1049.3622" y2="1033.3622" x2="0" gradientUnits="userSpaceOnUse" gradientTransform="matrix(1 0 0 1 0 -2.00004)"/>
  <linearGradient inkscape:collect="always" xlink:href="#linearGradient4290-2" id="linearGradient4452" y1="19.00004" y2="3.00004" x2="0" gradientUnits="userSpaceOnUse" gradientTransform="matrix(1 0 0 1 0 -2.00004)"/>
  <linearGradient inkscape:collect="always" xlink:href="#linearGradient4227" id="linearGradient4507" y1="23" x1="16.00001" y2="38.999729" x2="32" gradientUnits="userSpaceOnUse"/>
  <linearGradient inkscape:collect="always" id="linearGradient4227">
   <stop style="stop-color:#292c2f" id="stop4229"/>
   <stop offset="1" style="stop-opacity:0" id="stop4231"/>
  </linearGradient>
 </defs>
 <metadata id="metadata5458"/>
 <g inkscape:label="Capa 1" inkscape:groupmode="layer" id="layer1" transform="matrix(1 0 0 1 -384.57143 -499.798)">
  <path style="fill:url(#linearGradient4205);fill-rule:evenodd" id="path4194" d="M 9 11 L 9 13 L 10 12 L 9 11 z M 39 11 L 38 12 L 39 13 L 39 11 z " transform="matrix(1 0 0 1 384.57143 499.798)"/>
  <rect width="36" x="390.57144" y="513.79797" rx="0" height="29.999973" style="fill:url(#linearGradient4158)" id="rect4139"/>
  <path style="fill:url(#linearGradient4507);opacity:0.2" id="rect4480" d="M 20.707031 23.292969 L 19.292969 24.707031 L 27.292969 32.707031 L 27 33 L 38 44 L 38.585938 44 L 41.414062 44 L 42 44 L 42 38 L 37 33 L 32 28 L 28.707031 31.292969 L 20.707031 23.292969 z M 18.560547 29.439453 L 16.439453 31.560547 L 21.939453 37.060547 L 20.585938 38.414062 L 26.171875 44 L 33.123047 44 L 18.560547 29.439453 z " transform="matrix(1 0 0 1 384.57143 499.798)"/>
  <rect width="35.999992" x="390.57144" y="542.79797" height="0.999974" style="fill:#1c5593" id="rect4171"/>
  <path style="fill:url(#linearGradient4174);fill-rule:evenodd" id="path4172" d="M 10 10 L 9 11 L 10 12 L 6 14 L 24 14 L 42 14 L 38 12 L 39 11 L 38 10 L 24 10 L 10 10 z " transform="matrix(1 0 0 1 384.57143 499.798)"/>
  <path style="fill:url(#linearGradient4302);opacity:0.6;fill-rule:evenodd" id="path4183" d="M 10 10 L 9 11 L 10 12 L 6 14 L 24 14 L 42 14 L 38 12 L 39 11 L 38 10 L 24 10 L 10 10 z " transform="matrix(1 0 0 1 384.57143 499.798)"/>
  <path style="opacity:0.2" id="rect4176" d="M 10 10 L 9 11 L 39 11 L 38 10 L 24 10 L 10 10 z " transform="matrix(1 0 0 1 384.57143 499.798)"/>
  <path inkscape:connector-curvature="0" style="fill:url(#linearGradient4187)" id="rect4304" d="m 400.57143,516.798 0,-5 c 0,-4.432 3.568,-8 8,-8 4.432,0 8,3.568 8,8 l 0,5 -1,0 0,-5 c 0,-3.878 -3.122,-7 -7,-7 -3.878,0 -7,3.122 -7,7 l 0,5 z"/>
  <path inkscape:connector-curvature="0" style="fill:url(#linearGradient4290)" id="path4189" d="m 401.07143,514.798 a 1.5000002,1.5000002 0 0 1 1.5,1.5 1.5000002,1.5000002 0 0 1 -1.5,1.5 1.5000002,1.5000002 0 0 1 -1.5,-1.5 1.5000002,1.5000002 0 0 1 1.5,-1.5 z m 0,1 a 0.50000024,0.50000024 0 0 0 -0.5,0.5 0.50000024,0.50000024 0 0 0 0.5,0.5 0.50000024,0.50000024 0 0 0 0.5,-0.5 0.50000024,0.50000024 0 0 0 -0.5,-0.5 z"/>
  <path style="fill:url(#linearGradient4282)" id="circle4191" d="M 31.5 15 A 1.5000002 1.5000002 0 0 0 30 16.5 A 1.5000002 1.5000002 0 0 0 31.5 18 A 1.5000002 1.5000002 0 0 0 33 16.5 A 1.5000002 1.5000002 0 0 0 31.5 15 z M 31.5 16 A 0.50000024 0.50000024 0 0 1 32 16.5 A 0.50000024 0.50000024 0 0 1 31.5 17 A 0.50000024 0.50000024 0 0 1 31 16.5 A 0.50000024 0.50000024 0 0 1 31.5 16 z " transform="matrix(1 0 0 1 384.57143 499.798)"/>
  <path inkscape:label="Capa 1" inkscape:connector-curvature="0" style="fill:url(#linearGradient4452)" id="rect4231" d="M 7,3 C 6.446,3 6,3.446 6,4 6,4.554 6.446,5 7,5 7.554,5 8,4.554 8,4 8,3.446 7.554,3 7,3 Z m 7,0 -2,2 3,3 -3,3 2,2 3,-3 2,-2 -5,-5 z M 4.5,9 C 3.669,9 3,9.669 3,10.5 3,11.331 3.669,12 4.5,12 5.331,12 6,11.331 6,10.5 6,9.669 5.331,9 4.5,9 Z M 9,15 c -1.108,0 -2,0.892 -2,2 0,1.108 0.892,2 2,2 1.108,0 2,-0.892 2,-2 0,-1.108 -0.892,-2 -2,-2 z" transform="matrix(1 0 0 1 397.57144 519.798)"/>
 </g>
</svg>

<svg width="48" xmlns="http://www.w3.org/2000/svg" height="48" xmlns:xlink="http://www.w3.org/1999/xlink">
 <defs>
  <linearGradient id="a" y1="543.8" y2="513.8" x2="0" gradientUnits="userSpaceOnUse" gradientTransform="matrix(1.125 0 0 1-51.07 0)">
   <stop stop-color="#197cf1"/>
   <stop offset="1" stop-color="#20bcfa"/>
  </linearGradient>
  <linearGradient xlink:href="#a" id="b" y1="44" y2="11" x2="0" gradientUnits="userSpaceOnUse"/>
  <linearGradient id="c" y1="10" y2="14" x2="0" gradientUnits="userSpaceOnUse">
   <stop stop-color="#1d1e1e"/>
   <stop offset="1" stop-color="#44484c"/>
  </linearGradient>
  <linearGradient xlink:href="#a" id="d" y1="14" y2="10" gradientUnits="userSpaceOnUse" x2="0"/>
  <linearGradient xlink:href="#a" id="e" y1="516.8" y2="503.8" x2="0" gradientUnits="userSpaceOnUse"/>
  <linearGradient id="f" y1="18" y2="15" x2="0" gradientUnits="userSpaceOnUse">
   <stop stop-color="#c6cdd1"/>
   <stop offset="1" stop-color="#e0e5e7"/>
  </linearGradient>
  <linearGradient xlink:href="#f" id="g" y1="517.8" y2="514.8" x2="0" gradientUnits="userSpaceOnUse"/>
  <linearGradient id="h" y1="19" y2="3" x2="0" gradientUnits="userSpaceOnUse" gradientTransform="translate(0-2)">
   <stop stop-color="#7cbaf8"/>
   <stop offset="1" stop-color="#f4fcff"/>
  </linearGradient>
  <linearGradient id="i" y1="23" x1="16" y2="39" x2="32" gradientUnits="userSpaceOnUse">
   <stop stop-color="#292c2f"/>
   <stop offset="1" stop-opacity="0"/>
  </linearGradient>
  <path fill-rule="evenodd" id="j" d="m10 10l-1 1 1 1-4 2h36l-4-2 1-1-1-1h-14z"/>
 </defs>
 <g transform="translate(-384.57-499.8)">
  <path fill="url(#b)" fill-rule="evenodd" d="m9 11v2l1-1zm30 0l-1 1 1 1z" transform="translate(384.57 499.8)"/>
  <rect width="36" x="390.57" y="513.8" fill="url(#a)" rx="0" height="30"/>
  <path opacity=".2" fill="url(#i)" d="m20.707 23.293l-1.414 1.414 8 8-.293.293 11 11h4v-6l-10-10-3.293 3.293zm-2.146 6.146l-2.121 2.121 5.5 5.5-1.354 1.354 5.586 5.586h6.951z" transform="translate(384.57 499.8)"/>
  <rect width="36" x="390.57" y="542.8" fill="#1c5593" height="1"/>
  <use fill="url(#d)" xlink:href="#j" transform="translate(384.57 499.8)"/>
  <use opacity=".6" fill="url(#c)" xlink:href="#j" transform="translate(384.57 499.8)"/>
  <path opacity=".2" d="m10 10l-1 1h30l-1-1h-14z" transform="translate(384.57 499.8)"/>
  <path fill="url(#e)" d="m400.57 516.8v-5c0-4.432 3.568-8 8-8 4.432 0 8 3.568 8 8v5h-1v-5c0-3.878-3.122-7-7-7-3.878 0-7 3.122-7 7v5z"/>
  <path fill="url(#g)" d="m401.07143 514.798a1.5 1.5 0 0 1 1.5 1.5 1.5 1.5 0 0 1 -1.5 1.5 1.5 1.5 0 0 1 -1.5 -1.5 1.5 1.5 0 0 1 1.5 -1.5m0 1a.5 .5 0 0 0 -.5 .5 .5 .5 0 0 0 .5 .5 .5 .5 0 0 0 .5 -.5 .5 .5 0 0 0 -.5 -.5"/>
  <path fill="url(#f)" d="M31.5 15A1.5 1.5 0 0 0 30 16.5 1.5 1.5 0 0 0 31.5 18 1.5 1.5 0 0 0 33 16.5 1.5 1.5 0 0 0 31.5 15M31.5 16A.5 .5 0 0 1 32 16.5 .5 .5 0 0 1 31.5 17 .5 .5 0 0 1 31 16.5 .5 .5 0 0 1 31.5 16" transform="translate(384.57 499.8)"/>
  <path fill="url(#h)" d="m7 3c-.554 0-1 .446-1 1 0 .554.446 1 1 1 .554 0 1-.446 1-1 0-.554-.446-1-1-1m7 0l-2 2 3 3-3 3 2 2 5-5zm-9.5 6c-.831 0-1.5.669-1.5 1.5 0 .831.669 1.5 1.5 1.5.831 0 1.5-.669 1.5-1.5 0-.831-.669-1.5-1.5-1.5m4.5 6c-1.108 0-2 .892-2 2 0 1.108.892 2 2 2 1.108 0 2-.892 2-2 0-1.108-.892-2-2-2" transform="translate(397.57 519.8)"/>
 </g>
</svg>
